src/assets/img/icons/duotone-icons/Design/Cap-2.svg

<?xml version="1.0" encoding="UTF-8"?>
<svg width="24px" height="24px" viewBox="0 0 24 24" version="1.1" xmlns="http://www.w3.org/2000/svg" xmlns:xlink="http://www.w3.org/1999/xlink">
    <!-- Generator: Sketch 52.2 (67145) - http://www.bohemiancoding.com/sketch -->
    <title>Stockholm-icons / Design / Cap-2</title>
    <desc>Created with Sketch.</desc>
    <g id="Stockholm-icons-/-Design-/-Cap-2" stroke="none" stroke-width="1" fill="none" fill-rule="evenodd">
        <circle id="Oval" fill="#335EEA" opacity="0.3" cx="12" cy="7" r="2"></circle>
        <path d="M11,19 L4,19 L4,7 L7.03051599,7 C7.01035184,7.16416693 7,7.33099545 7,7.5 C7,9.67706212 8.71775968,11.4930404 11,11.9099837 L11,19 Z M13,19 L13,11.9099837 C15.2822403,11.4930404 17,9.67706212 17,7.5 C17,7.33099545 16.9896482,7.16416693 16.969484,7 L20,7 L20,19 L13,19 Z" id="Combined-Shape" fill="#335EEA"></path>
    </g>
</svg>

<svg width="24" height="24" viewBox="0 0 24 24" xmlns="http://www.w3.org/2000/svg"><g fill="#335EEA" fill-rule="evenodd"><circle opacity=".3" cx="12" cy="7" r="2"/><path d="M11 19H4V7h3.03a4.1 4.1 0 00-.03.5c0 2.177 1.718 3.993 4 4.41V19zm2 0v-7.09c2.282-.417 4-2.233 4-4.41a4.1 4.1 0 00-.03-.5H20v12h-7z"/></g></svg>
